icon_installer/data/icons/scalable/actions/show-window-symbolic.svg

<?xml version="1.0" encoding="UTF-8"?>
<svg height="16px" viewBox="0 0 16 16" width="16px" xmlns="http://www.w3.org/2000/svg">
    <path d="m 2 0 c -1.214844 0 -2 0.828125 -2 2 v 12 c 0 1 1 2 2 2 h 11.984375 c 1 0 2 -1 2 -2 v -12 c 0 -1.238281 -0.828125 -2 -2 -2 z m 8.984375 2 h 1 v 0.996094 h 1 v -0.996094 h 1 v 0.996094 h -1 v 1 l 1 0.003906 v 1 h -1 v -1.003906 h -1 v 1.003906 h -1 v -1.003906 h 1 v -1 l -1 0.003906 z m -8.984375 4 h 11.984375 v 8 h -11.984375 z m 0 0" fill="#222222"/>
</svg>

<svg xmlns="http://www.w3.org/2000/svg" width="16" height="16"><path fill="#222" d="M2 0C.785 0 0 .828 0 2v12c0 1 1 2 2 2h11.984c1 0 2-1 2-2V2c0-1.238-.828-2-2-2zm8.984 2h1v.996h1V2h1v.996h-1v1l1 .004v1h-1V3.996h-1V5h-1V3.996h1v-1l-1 .004zM2 6h11.984v8H2zm0 0"/></svg>
